X: 31829
T: Paudeen O'Rafferty
R: jig
M: 6/8
K: Gmajor
B|GAB D2 B|GAB AGE|GAB DDD|GGG GED|
GAB D2 B|GAB d2 e|d2 B AGA|BAF G2:|
B|dBB d2 B|dBB A2 B|dBB dBA|GGG GED|
dBB d2 B|def ~g2 e|d2 B AGA|BAF G2:|

